src/images/contract-icon.svg

<svg width="31" height="31" viewBox="0 0 31 31" fill="none" xmlns="http://www.w3.org/2000/svg">
<path d="M26.26 1.7251H5.26001C3.60316 1.7251 2.26001 3.06824 2.26001 4.7251V25.7251C2.26001 27.382 3.60316 28.7251 5.26001 28.7251H26.26C27.9169 28.7251 29.26 27.382 29.26 25.7251V4.7251C29.26 3.06824 27.9169 1.7251 26.26 1.7251Z" stroke="#03C2FF" stroke-width="3" stroke-linecap="round" stroke-linejoin="round"/>
<path d="M7 13H25" stroke="#03C2FF" stroke-width="3" stroke-linecap="round" stroke-linejoin="round"/>
<path d="M13 7H19" stroke="#03C2FF" stroke-width="3" stroke-linecap="round" stroke-linejoin="round"/>
<path d="M7 23H25" stroke="#03C2FF" stroke-width="3" stroke-linecap="round" stroke-linejoin="round"/>
<path d="M7 18H25" stroke="#03C2FF" stroke-width="3" stroke-linecap="round" stroke-linejoin="round"/>
</svg>

<svg width="31" height="31" fill="none" xmlns="http://www.w3.org/2000/svg"><path d="M26.26 1.73h-21a3 3 0 00-3 3v21a3 3 0 003 3h21a3 3 0 003-3v-21a3 3 0 00-3-3zM7 13h18M13 7h6M7 23h18M7 18h18" stroke="#03C2FF" stroke-width="3" stroke-linecap="round" stroke-linejoin="round"/></svg>
